!!!Melodie: Aus meines Herzens Grunde
!!!Typ: Lied
**kern	**silbe	**silbe	**silbe	**silbe	**silbe	**silbe	**silbe	**silbe	**silbe	**silbe
*clefG2	*lang:DE	*lang:DE	*lang:DE	*lang:DE	*lang:DE	*lang:DE	*lang:DE	*lang:DE	*lang:DE	*lang:DE
*k[b-,e-]	*	*	*	*	*	*	*	*	*	*
*M2/2	*	*	*	*	*	*	*	*	*	*
2b-	Ich	wenn	Ich	mit	Auch	er	Das	der	So	und
=	=	=	=	=	=	=	=	=	=	=
4a	weiß,	al#	weiß,	Di#	kenn’	heißt	ist	Fels,	weiß	in
4g	wo	#les	was	#a#	ich	der	das	auf	ich,	dem
4b-	#ran	hier	e#	#man#	wohl	Herr	Licht	dem	was	Er#
4f	ich	im	#wig	#ten	den	der	der	ich	ich	#den#
=	=	=	=	=	=	=	=	=	=	=
2e-	glau#	Stau#	dau#	mau#	Meis#	Geis#	Hö#	ste#	glau#	#stau#
4e-	#be,	#be	#ert,	#ert	#ter,	#ter	#he,	#he,	#be,	#be
4dd	ich	wie	ich	mir’s	der	auf	das	der	ich	nicht
=	=	=	=	=	=	=	=	=	=	=
4cc	weiß,	Sand	weiß,	Gott	mir	den	ist	di#	weiß,	mit
4b-	was	und	was	im	die	der	der	#a#	was	als
4b-	fest	Staub	nie	Her#	Fes#	Him#	Je#	#man#	fest	Staub
4a	be#	ver#	ver#	#zen	#tung	#mel	#sus	#ten	be#	ver#
=	=	=	=	=	=	=	=	=	=	=
2b-	#steht,	#weht;	#lässt,	fest.	baut,	schaut,	Christ,	ist,	#steht	#weht;
=:|	=	=	=	=	=	=	=	=	=	=
2f	.	Ich	.	Die	.	vor	.	der	.	ich
=	=	=	=	=	=	=	=	=	=	=
4g	.	weiß,	.	Stei#	.	dem	.	nim#	.	weiß,
4a	.	was	.	#ne	.	die	.	#mer#	.	was
4b-	.	e#	.	sind	.	Se#	.	#mehr	.	in
4a	.	#wig	.	die	.	#ra#	.	kann	.	dem
=	=	=	=	=	=	=	=	=	=	=
2g	.	blei#	.	Wor#	.	#phi#	.	wan#	.	Grau#
4e-	.	#bet,	.	#te,	.	#nen	.	#ken,	.	#en
4c	.	wo	.	die	.	an#	.	der	.	des
=	=	=	=	=	=	=	=	=	=	=
4d	.	al#	.	Wor#	.	#be#	.	Hei#	.	To#
4f	.	#les	.	#te	.	#tend	.	#land	.	#des
4f	.	wankt	.	hell	.	nie#	.	und	.	e#
4e	.	und	.	und	.	#der#	.	der	.	#wig
=	=	=	=	=	=	=	=	=	=	=
2f	.	fällt,	.	rein,	.	#knie'n,	.	Hort,	.	bleibt
2f	.	wo	.	wo#	.	um	.	die	.	und
=	=	=	=	=	=	=	=	=	=	=
4f	.	Wahn	.	#durch	.	den	.	Leuch#	.	selbst
4g	.	die	.	die	.	die	.	#te	.	auf
4a	.	Wei#	.	schwäch#	.	En#	.	der	.	Er#
4b-	.	#sen	.	#sten	.	#gel	.	Ge#	.	#den#
=	=	=	=	=	=	=	=	=	=	=
2a	.	trei#	.	Or#	.	die#	.	#dan#	.	#au#
4g	.	#bet	.	#te	.	#nen:	.	#ken,	.	#en
4f	.	und	.	gar	.	ich	.	die	.	schon
=	=	=	=	=	=	=	=	=	=	=
*M3/2	*	*	*	*	*	*	*	*	*	*
4e-	.	Trug	.	fes#	.	weiß	.	leuch#	.	Him#
4d	.	die	.	#te	.	und	.	#tet	.	mels#
2e-	.	Klu#	.	kön#	.	ken#	.	hier	.	#blu#
2c	.	#gen	.	#nen	.	#ne	.	und	.	#men
=	=	=	=	=	=	=	=	=	=	=
*M2/2	*	*	*	*	*	*	*	*	*	*
2B-	.	prellt.	.	sein.	.	ihn.	.	dort.	.	treibt.
==	==	==	==	==	==	==	==	==	==	==
*-	*-	*-	*-	*-	*-	*-	*-	*-	*-	*-
